X: 253b
T: Michael McGoldrick's
T: Michaels Version wie auf BBC Online Session gespielt
M:6/8
C:Michael McGoldrick
R:Jig
L:1/8
K:D
"D"~f3 "A"efg|"D"fdA "G"~G3|"D"FAd "G"GBe|"A"AB/c/d efg|
"D"~f3 "A"efg|"D"fdA "G"~G3|"D"FAd "G"GBe|1 "A"Adc "D"d2e:|2 Adc d2c||
"Bm"~B3 BAF|f2a fec|"A"e2e fec|Ace fec|
"Bm"~B3 BAF|f2a fec|"A" e2e fec|1BcA "Bm"B2A:|2 BcA "Bm"B2g|]


